report_00007_2020-12-11T15:55:29.892Z/server-response-time/comparison/sorted/3_vs_4.svg

<svg width="640" height="500" xmlns="http://www.w3.org/2000/svg" xmlns:xlink="http://www.w3.org/1999/xlink"><path fill="#fff" d="M0 0h640v500H0z"/><defs><path id="d" stroke-width=".222" stroke="currentColor" d="M-1-1h2v2h-2z"/><path id="b" stroke-width=".222" stroke="currentColor" d="M0-1.33l-1.33 2h2.66z"/><path id="f" stroke-width=".222" stroke="currentColor" d="M0 1.33L1.265.411.782-1.067l-1.564-.009-.483 1.487z"/><use xlink:href="#b" id="c" stroke="currentColor" transform="rotate(180)"/><use xlink:href="#d" id="e" stroke="currentColor" transform="rotate(45)"/><circle id="a" stroke-width=".222" stroke="currentColor" cx="0" cy="0" r="1"/></defs><g fill="none" color="#000" stroke="currentColor"><path stroke="#000" d="M53.9 444.2h9m552.1 0h-9"/><text transform="translate(45.6 448.1)" stroke="none" fill="#000" font-family="Arial" font-size="12" text-anchor="end"><tspan>1.2</tspan></text></g><g fill="none" color="#000" stroke="currentColor"><path stroke="#000" d="M53.9 372.4h9m552.1 0h-9"/><text transform="translate(45.6 376.3)" stroke="none" fill="#000" font-family="Arial" font-size="12" text-anchor="end"><tspan>1.4</tspan></text></g><g fill="none" color="#000" stroke="currentColor"><path stroke="#000" d="M53.9 300.5h9m552.1 0h-9"/><text transform="translate(45.6 304.4)" stroke="none" fill="#000" font-family="Arial" font-size="12" text-anchor="end"><tspan>1.6</tspan></text></g><g fill="none" color="#000" stroke="currentColor"><path stroke="#000" d="M53.9 228.6h9m552.1 0h-9"/><text transform="translate(45.6 232.5)" stroke="none" fill="#000" font-family="Arial" font-size="12" text-anchor="end"><tspan>1.8</tspan></text></g><g fill="none" color="#000" stroke="currentColor"><path stroke="#000" d="M53.9 156.8h9m552.1 0h-9"/><text transform="translate(45.6 160.7)" stroke="none" fill="#000" font-family="Arial" font-size="12" text-anchor="end"><tspan>2</tspan></text></g><g fill="none" color="#000" stroke="currentColor"><path stroke="#000" d="M53.9 84.9h9m552.1 0h-9"/><text transform="translate(45.6 88.8)" stroke="none" fill="#000" font-family="Arial" font-size="12" text-anchor="end"><tspan>2.2</tspan></text></g><g fill="none" color="#000" stroke="currentColor"><path stroke="#000" d="M53.9 446v-9m0-418.9v9"/><text transform="translate(53.9 467.9)" stroke="none" fill="#000" font-family="Arial" font-size="12" text-anchor="middle"><tspan>0</tspan></text></g><g fill="none" color="#000" stroke="currentColor"><path stroke="#000" d="M110.6 446v-9m0-418.9v9"/><text transform="translate(110.6 467.9)" stroke="none" fill="#000" font-family="Arial" font-size="12" text-anchor="middle"><tspan>10</tspan></text></g><g fill="none" color="#000" stroke="currentColor"><path stroke="#000" d="M167.3 446v-9m0-418.9v9"/><text transform="translate(167.3 467.9)" stroke="none" fill="#000" font-family="Arial" font-size="12" text-anchor="middle"><tspan>20</tspan></text></g><g fill="none" color="#000" stroke="currentColor"><path stroke="#000" d="M223.9 446v-9m0-418.9v9"/><text transform="translate(223.9 467.9)" stroke="none" fill="#000" font-family="Arial" font-size="12" text-anchor="middle"><tspan>30</tspan></text></g><g fill="none" color="#000" stroke="currentColor"><path stroke="#000" d="M280.6 446v-9m0-418.9v9"/><text transform="translate(280.6 467.9)" stroke="none" fill="#000" font-family="Arial" font-size="12" text-anchor="middle"><tspan>40</tspan></text></g><g fill="none" color="#000" stroke="currentColor"><path stroke="#000" d="M337.3 446v-9m0-418.9v9"/><text transform="translate(337.3 467.9)" stroke="none" fill="#000" font-family="Arial" font-size="12" text-anchor="middle"><tspan>50</tspan></text></g><g fill="none" color="#000" stroke="currentColor"><path stroke="#000" d="M394 446v-9m0-418.9v9"/><text transform="translate(394 467.9)" stroke="none" fill="#000" font-family="Arial" font-size="12" text-anchor="middle"><tspan>60</tspan></text></g><g fill="none" color="#000" stroke="currentColor"><path stroke="#000" d="M450.6 446v-9m0-418.9v9"/><text transform="translate(450.6 467.9)" stroke="none" fill="#000" font-family="Arial" font-size="12" text-anchor="middle"><tspan>70</tspan></text></g><g fill="none" color="#000" stroke="currentColor"><path stroke="#000" d="M507.3 446v-9m0-418.9v9"/><text transform="translate(507.3 467.9)" stroke="none" fill="#000" font-family="Arial" font-size="12" text-anchor="middle"><tspan>80</tspan></text></g><g fill="none" color="#000" stroke="currentColor"><path stroke="#000" d="M564 446v-9m0-418.9v9"/><text transform="translate(564 467.9)" stroke="none" fill="#000" font-family="Arial" font-size="12" text-anchor="middle"><tspan>90</tspan></text></g><path stroke="#000" d="M53.9 18.1V446H615V18.1H53.9z" fill="none" color="#000"/><text transform="translate(275.6 485.9)" stroke="none" fill="#000" font-family="Arial" font-size="12" text-anchor="end" color="#000"><tspan>pages+cached+nointeractive</tspan></text><path stroke="#9400D3" d="M283.9 482h42.2M53.9 437.8l5.7-14.4 5.6-8.6h5.7l5.7-4 5.6-5.7 5.7-.7 5.7-5.1 5.6-.3 5.7-.4 5.7-.4 5.6-.7h5.7l5.7-.7 5.6-.4 5.7-.3 5.7-3.6 5.7-.4 5.6-2.5 5.7-1.8 5.7-.7 5.6-4.7 5.7-4.6 5.7-.8 5.6-.3 5.7-1.8 5.7-1.8h5.6l5.7-3.2h5.7l5.6-1.1 5.7-.4 5.7-1.8 5.6-.7 5.7-1.1 5.7-1.1 5.6-2.8 5.7-.7 5.7-2.6 5.6-.3 5.7-.7 5.7-1.8 5.6-1.1 5.7-1.1 5.7-.4 5.6-1 5.7-.7 5.7-1.1 5.6-.4 5.7-2.9 5.7-1 5.7-1.5 5.6-.7 5.7-1.4 5.7-1.8 5.6-7.2 5.7-.7 5.7-1.8 5.6-.7 5.7-.4h5.7l5.6-2.5 5.7-7.2 5.7-.4 5.6-.7 5.7-.7 5.7-5.8 5.6-1.4 5.7-1.8 5.7-.7 5.6-5.8 5.7-1.4 5.7-7.2 5.6-3.9 5.7-7.2 5.7-.7 5.6-.8 5.7-1.8 5.7-6.8 5.6-2.1 5.7-1.1 5.7-10.8 5.6-1.4 5.7-.8 5.7-2.1 5.7-.7 5.6-4.3 5.7-3.3 5.7-2.8 5.6-4 5.7-.4 5.7-.3 5.6-18.7 5.7-7.9 5.7-3.2 5.6-19.8 5.7-8.6 5.7-62.9 5.6-44.2 5.7-46.4" fill="none" color="#000"/><text transform="translate(550.2 485.9)" stroke="none" fill="#000" font-family="Arial" font-size="12" text-anchor="end" color="#000"><tspan>pages+cached+noadtech</tspan></text><path stroke="#009E73" d="M558.5 482h42.2M53.9 412.6l5.7-5 5.6-1.5 5.7-4.3 5.7-1 5.6-1.8 5.7-.8 5.7-2.8 5.6-2.9 5.7-.7 5.7-.4 5.6-.3 5.7-.4 5.7-1.4 5.6-1.1 5.7-5.8 5.7-2.1 5.7-1.1h5.6l5.7-.4 5.7-2.1 5.6-.4h5.7l5.7-1.4 5.6-3.6 5.7-1.8h5.7l5.6-.4 5.7-1.4 5.7-3.6h5.6l5.7-.4 5.7-1 5.6-1.5 5.7-2.8 5.7-4 5.6-.4 5.7-4.6 5.7-1.1 5.6-3.2 5.7-4.4 5.7-.3 5.6-3.6 5.7-6.5 5.7-6.4 5.6-2.2 5.7-11.1 5.7-4.3 5.6-4.4 5.7-3.6 5.7-.3 5.7-4.3 5.6-4.7 5.7-4.7 5.7-1.4 5.6-1.8 5.7-3.2 5.7-1.1 5.6-3.6 5.7-2.5 5.7-1.1 5.6-1.4 5.7-1.5 5.7-5 5.6-.7 5.7-.4 5.7-2.9h5.6l5.7-1 5.7-2.2 5.6-2.1 5.7-2.2 5.7-6.1 5.6-3.2h5.7l5.7-2.9 5.6-1.1 5.7-.7 5.7-1.1 5.6-7.5 5.7-4.4 5.7-8.9 5.6-9.4 5.7-7.5 5.7-7.2 5.7-2.2 5.6-1.4 5.7-3.2 5.7-8.3 5.6-3.2 5.7-4.4 5.7-12.5 5.6-21.6 5.7-12.9 5.7-6.5 5.6-9 5.7-6.4 5.7-15.1 5.6-1.8 5.7-39.6" fill="none" color="#000"/><g fill="none" color="#000" stroke="currentColor"><path stroke="#000" d="M53.9 18.1V446H615V18.1H53.9z"/></g></svg>

<?xml version="1.0" encoding="utf-8"  standalone="no"?>
<svg 
 width="640" height="500"
 viewBox="0 0 640 500"
 xmlns="http://www.w3.org/2000/svg"
 xmlns:xlink="http://www.w3.org/1999/xlink"
>

<title>Gnuplot</title>
<desc>Produced by GNUPLOT 5.4 patchlevel 0 </desc>

<g id="gnuplot_canvas">

<rect x="0" y="0" width="640" height="500" fill="#ffffff"/>
<defs>

	<circle id='gpDot' r='0.5' stroke-width='0.5' stroke='currentColor'/>
	<path id='gpPt0' stroke-width='0.222' stroke='currentColor' d='M-1,0 h2 M0,-1 v2'/>
	<path id='gpPt1' stroke-width='0.222' stroke='currentColor' d='M-1,-1 L1,1 M1,-1 L-1,1'/>
	<path id='gpPt2' stroke-width='0.222' stroke='currentColor' d='M-1,0 L1,0 M0,-1 L0,1 M-1,-1 L1,1 M-1,1 L1,-1'/>
	<rect id='gpPt3' stroke-width='0.222' stroke='currentColor' x='-1' y='-1' width='2' height='2'/>
	<rect id='gpPt4' stroke-width='0.222' stroke='currentColor' fill='currentColor' x='-1' y='-1' width='2' height='2'/>
	<circle id='gpPt5' stroke-width='0.222' stroke='currentColor' cx='0' cy='0' r='1'/>
	<use xlink:href='#gpPt5' id='gpPt6' fill='currentColor' stroke='none'/>
	<path id='gpPt7' stroke-width='0.222' stroke='currentColor' d='M0,-1.33 L-1.33,0.67 L1.33,0.67 z'/>
	<use xlink:href='#gpPt7' id='gpPt8' fill='currentColor' stroke='none'/>
	<use xlink:href='#gpPt7' id='gpPt9' stroke='currentColor' transform='rotate(180)'/>
	<use xlink:href='#gpPt9' id='gpPt10' fill='currentColor' stroke='none'/>
	<use xlink:href='#gpPt3' id='gpPt11' stroke='currentColor' transform='rotate(45)'/>
	<use xlink:href='#gpPt11' id='gpPt12' fill='currentColor' stroke='none'/>
	<path id='gpPt13' stroke-width='0.222' stroke='currentColor' d='M0,1.330 L1.265,0.411 L0.782,-1.067 L-0.782,-1.076 L-1.265,0.411 z'/>
	<use xlink:href='#gpPt13' id='gpPt14' fill='currentColor' stroke='none'/>
	<filter id='textbox' filterUnits='objectBoundingBox' x='0' y='0' height='1' width='1'>
	  <feFlood flood-color='#FFFFFF' flood-opacity='1' result='bgnd'/>
	  <feComposite in='SourceGraphic' in2='bgnd' operator='atop'/>
	</filter>
	<filter id='greybox' filterUnits='objectBoundingBox' x='0' y='0' height='1' width='1'>
	  <feFlood flood-color='lightgrey' flood-opacity='1' result='grey'/>
	  <feComposite in='SourceGraphic' in2='grey' operator='atop'/>
	</filter>
</defs>
<g fill="none" color="#FFFFFF" stroke="black" stroke-width="1.00" stroke-linecap="butt" stroke-linejoin="miter">
</g>
<g fill="none" color="black" stroke="currentColor" stroke-width="1.00" stroke-linecap="butt" stroke-linejoin="miter">
	<path stroke='black'  d='M53.9,444.2 L62.9,444.2 M615.0,444.2 L606.0,444.2  '/>	<g transform="translate(45.6,448.1)" stroke="none" fill="black" font-family="Arial" font-size="12.00"  text-anchor="end">
		<text><tspan font-family="Arial" > 1.2</tspan></text>
	</g>
</g>
<g fill="none" color="black" stroke="currentColor" stroke-width="1.00" stroke-linecap="butt" stroke-linejoin="miter">
	<path stroke='black'  d='M53.9,372.4 L62.9,372.4 M615.0,372.4 L606.0,372.4  '/>	<g transform="translate(45.6,376.3)" stroke="none" fill="black" font-family="Arial" font-size="12.00"  text-anchor="end">
		<text><tspan font-family="Arial" > 1.4</tspan></text>
	</g>
</g>
<g fill="none" color="black" stroke="currentColor" stroke-width="1.00" stroke-linecap="butt" stroke-linejoin="miter">
	<path stroke='black'  d='M53.9,300.5 L62.9,300.5 M615.0,300.5 L606.0,300.5  '/>	<g transform="translate(45.6,304.4)" stroke="none" fill="black" font-family="Arial" font-size="12.00"  text-anchor="end">
		<text><tspan font-family="Arial" > 1.6</tspan></text>
	</g>
</g>
<g fill="none" color="black" stroke="currentColor" stroke-width="1.00" stroke-linecap="butt" stroke-linejoin="miter">
	<path stroke='black'  d='M53.9,228.6 L62.9,228.6 M615.0,228.6 L606.0,228.6  '/>	<g transform="translate(45.6,232.5)" stroke="none" fill="black" font-family="Arial" font-size="12.00"  text-anchor="end">
		<text><tspan font-family="Arial" > 1.8</tspan></text>
	</g>
</g>
<g fill="none" color="black" stroke="currentColor" stroke-width="1.00" stroke-linecap="butt" stroke-linejoin="miter">
	<path stroke='black'  d='M53.9,156.8 L62.9,156.8 M615.0,156.8 L606.0,156.8  '/>	<g transform="translate(45.6,160.7)" stroke="none" fill="black" font-family="Arial" font-size="12.00"  text-anchor="end">
		<text><tspan font-family="Arial" > 2</tspan></text>
	</g>
</g>
<g fill="none" color="black" stroke="currentColor" stroke-width="1.00" stroke-linecap="butt" stroke-linejoin="miter">
	<path stroke='black'  d='M53.9,84.9 L62.9,84.9 M615.0,84.9 L606.0,84.9  '/>	<g transform="translate(45.6,88.8)" stroke="none" fill="black" font-family="Arial" font-size="12.00"  text-anchor="end">
		<text><tspan font-family="Arial" > 2.2</tspan></text>
	</g>
</g>
<g fill="none" color="black" stroke="currentColor" stroke-width="1.00" stroke-linecap="butt" stroke-linejoin="miter">
	<path stroke='black'  d='M53.9,446.0 L53.9,437.0 M53.9,18.1 L53.9,27.1  '/>	<g transform="translate(53.9,467.9)" stroke="none" fill="black" font-family="Arial" font-size="12.00"  text-anchor="middle">
		<text><tspan font-family="Arial" > 0</tspan></text>
	</g>
</g>
<g fill="none" color="black" stroke="currentColor" stroke-width="1.00" stroke-linecap="butt" stroke-linejoin="miter">
	<path stroke='black'  d='M110.6,446.0 L110.6,437.0 M110.6,18.1 L110.6,27.1  '/>	<g transform="translate(110.6,467.9)" stroke="none" fill="black" font-family="Arial" font-size="12.00"  text-anchor="middle">
		<text><tspan font-family="Arial" > 10</tspan></text>
	</g>
</g>
<g fill="none" color="black" stroke="currentColor" stroke-width="1.00" stroke-linecap="butt" stroke-linejoin="miter">
	<path stroke='black'  d='M167.3,446.0 L167.3,437.0 M167.3,18.1 L167.3,27.1  '/>	<g transform="translate(167.3,467.9)" stroke="none" fill="black" font-family="Arial" font-size="12.00"  text-anchor="middle">
		<text><tspan font-family="Arial" > 20</tspan></text>
	</g>
</g>
<g fill="none" color="black" stroke="currentColor" stroke-width="1.00" stroke-linecap="butt" stroke-linejoin="miter">
	<path stroke='black'  d='M223.9,446.0 L223.9,437.0 M223.9,18.1 L223.9,27.1  '/>	<g transform="translate(223.9,467.9)" stroke="none" fill="black" font-family="Arial" font-size="12.00"  text-anchor="middle">
		<text><tspan font-family="Arial" > 30</tspan></text>
	</g>
</g>
<g fill="none" color="black" stroke="currentColor" stroke-width="1.00" stroke-linecap="butt" stroke-linejoin="miter">
	<path stroke='black'  d='M280.6,446.0 L280.6,437.0 M280.6,18.1 L280.6,27.1  '/>	<g transform="translate(280.6,467.9)" stroke="none" fill="black" font-family="Arial" font-size="12.00"  text-anchor="middle">
		<text><tspan font-family="Arial" > 40</tspan></text>
	</g>
</g>
<g fill="none" color="black" stroke="currentColor" stroke-width="1.00" stroke-linecap="butt" stroke-linejoin="miter">
	<path stroke='black'  d='M337.3,446.0 L337.3,437.0 M337.3,18.1 L337.3,27.1  '/>	<g transform="translate(337.3,467.9)" stroke="none" fill="black" font-family="Arial" font-size="12.00"  text-anchor="middle">
		<text><tspan font-family="Arial" > 50</tspan></text>
	</g>
</g>
<g fill="none" color="black" stroke="currentColor" stroke-width="1.00" stroke-linecap="butt" stroke-linejoin="miter">
	<path stroke='black'  d='M394.0,446.0 L394.0,437.0 M394.0,18.1 L394.0,27.1  '/>	<g transform="translate(394.0,467.9)" stroke="none" fill="black" font-family="Arial" font-size="12.00"  text-anchor="middle">
		<text><tspan font-family="Arial" > 60</tspan></text>
	</g>
</g>
<g fill="none" color="black" stroke="currentColor" stroke-width="1.00" stroke-linecap="butt" stroke-linejoin="miter">
	<path stroke='black'  d='M450.6,446.0 L450.6,437.0 M450.6,18.1 L450.6,27.1  '/>	<g transform="translate(450.6,467.9)" stroke="none" fill="black" font-family="Arial" font-size="12.00"  text-anchor="middle">
		<text><tspan font-family="Arial" > 70</tspan></text>
	</g>
</g>
<g fill="none" color="black" stroke="currentColor" stroke-width="1.00" stroke-linecap="butt" stroke-linejoin="miter">
	<path stroke='black'  d='M507.3,446.0 L507.3,437.0 M507.3,18.1 L507.3,27.1  '/>	<g transform="translate(507.3,467.9)" stroke="none" fill="black" font-family="Arial" font-size="12.00"  text-anchor="middle">
		<text><tspan font-family="Arial" > 80</tspan></text>
	</g>
</g>
<g fill="none" color="black" stroke="currentColor" stroke-width="1.00" stroke-linecap="butt" stroke-linejoin="miter">
	<path stroke='black'  d='M564.0,446.0 L564.0,437.0 M564.0,18.1 L564.0,27.1  '/>	<g transform="translate(564.0,467.9)" stroke="none" fill="black" font-family="Arial" font-size="12.00"  text-anchor="middle">
		<text><tspan font-family="Arial" > 90</tspan></text>
	</g>
</g>
<g fill="none" color="black" stroke="currentColor" stroke-width="1.00" stroke-linecap="butt" stroke-linejoin="miter">
</g>
<g fill="none" color="black" stroke="currentColor" stroke-width="1.00" stroke-linecap="butt" stroke-linejoin="miter">
	<path stroke='black'  d='M53.9,18.1 L53.9,446.0 L615.0,446.0 L615.0,18.1 L53.9,18.1 Z  '/></g>
<g fill="none" color="black" stroke="currentColor" stroke-width="1.00" stroke-linecap="butt" stroke-linejoin="miter">
</g>
	<g id="gnuplot_plot_1" ><title>pages+cached+nointeractive</title>
<g fill="none" color="black" stroke="currentColor" stroke-width="1.00" stroke-linecap="butt" stroke-linejoin="miter">
	<g transform="translate(275.6,485.9)" stroke="none" fill="black" font-family="Arial" font-size="12.00"  text-anchor="end">
		<text><tspan font-family="Arial" >pages+cached+nointeractive</tspan></text>
	</g>
</g>
<g fill="none" color="black" stroke="currentColor" stroke-width="1.00" stroke-linecap="butt" stroke-linejoin="miter">
	<path stroke='rgb(148,   0, 211)'  d='M283.9,482.0 L326.1,482.0 M53.9,437.8 L59.6,423.4 L65.2,414.8 L70.9,414.8 L76.6,410.8 L82.2,405.1
		L87.9,404.4 L93.6,399.3 L99.2,399.0 L104.9,398.6 L110.6,398.2 L116.2,397.5 L121.9,397.5 L127.6,396.8
		L133.2,396.4 L138.9,396.1 L144.6,392.5 L150.3,392.1 L155.9,389.6 L161.6,387.8 L167.3,387.1 L172.9,382.4
		L178.6,377.8 L184.3,377.0 L189.9,376.7 L195.6,374.9 L201.3,373.1 L206.9,373.1 L212.6,369.9 L218.3,369.9
		L223.9,368.8 L229.6,368.4 L235.3,366.6 L240.9,365.9 L246.6,364.8 L252.3,363.7 L257.9,360.9 L263.6,360.2
		L269.3,357.6 L274.9,357.3 L280.6,356.6 L286.3,354.8 L291.9,353.7 L297.6,352.6 L303.3,352.2 L308.9,351.2
		L314.6,350.5 L320.3,349.4 L325.9,349.0 L331.6,346.1 L337.3,345.1 L343.0,343.6 L348.6,342.9 L354.3,341.5
		L360.0,339.7 L365.6,332.5 L371.3,331.8 L377.0,330.0 L382.6,329.3 L388.3,328.9 L394.0,328.9 L399.6,326.4
		L405.3,319.2 L411.0,318.8 L416.6,318.1 L422.3,317.4 L428.0,311.6 L433.6,310.2 L439.3,308.4 L445.0,307.7
		L450.6,301.9 L456.3,300.5 L462.0,293.3 L467.6,289.4 L473.3,282.2 L479.0,281.5 L484.6,280.7 L490.3,278.9
		L496.0,272.1 L501.6,270.0 L507.3,268.9 L513.0,258.1 L518.6,256.7 L524.3,255.9 L530.0,253.8 L535.7,253.1
		L541.3,248.8 L547.0,245.5 L552.7,242.7 L558.3,238.7 L564.0,238.3 L569.7,238.0 L575.3,219.3 L581.0,211.4
		L586.7,208.2 L592.3,188.4 L598.0,179.8 L603.7,116.9 L609.3,72.7 L615.0,26.3  '/></g>
	</g>
	<g id="gnuplot_plot_2" ><title>pages+cached+noadtech</title>
<g fill="none" color="black" stroke="currentColor" stroke-width="1.00" stroke-linecap="butt" stroke-linejoin="miter">
	<g transform="translate(550.2,485.9)" stroke="none" fill="black" font-family="Arial" font-size="12.00"  text-anchor="end">
		<text><tspan font-family="Arial" >pages+cached+noadtech</tspan></text>
	</g>
</g>
<g fill="none" color="black" stroke="currentColor" stroke-width="1.00" stroke-linecap="butt" stroke-linejoin="miter">
	<path stroke='rgb(  0, 158, 115)'  d='M558.5,482.0 L600.7,482.0 M53.9,412.6 L59.6,407.6 L65.2,406.1 L70.9,401.8 L76.6,400.8 L82.2,399.0
		L87.9,398.2 L93.6,395.4 L99.2,392.5 L104.9,391.8 L110.6,391.4 L116.2,391.1 L121.9,390.7 L127.6,389.3
		L133.2,388.2 L138.9,382.4 L144.6,380.3 L150.3,379.2 L155.9,379.2 L161.6,378.8 L167.3,376.7 L172.9,376.3
		L178.6,376.3 L184.3,374.9 L189.9,371.3 L195.6,369.5 L201.3,369.5 L206.9,369.1 L212.6,367.7 L218.3,364.1
		L223.9,364.1 L229.6,363.7 L235.3,362.7 L240.9,361.2 L246.6,358.4 L252.3,354.4 L257.9,354.0 L263.6,349.4
		L269.3,348.3 L274.9,345.1 L280.6,340.7 L286.3,340.4 L291.9,336.8 L297.6,330.3 L303.3,323.9 L308.9,321.7
		L314.6,310.6 L320.3,306.3 L325.9,301.9 L331.6,298.3 L337.3,298.0 L343.0,293.7 L348.6,289.0 L354.3,284.3
		L360.0,282.9 L365.6,281.1 L371.3,277.9 L377.0,276.8 L382.6,273.2 L388.3,270.7 L394.0,269.6 L399.6,268.2
		L405.3,266.7 L411.0,261.7 L416.6,261.0 L422.3,260.6 L428.0,257.7 L433.6,257.7 L439.3,256.7 L445.0,254.5
		L450.6,252.4 L456.3,250.2 L462.0,244.1 L467.6,240.9 L473.3,240.9 L479.0,238.0 L484.6,236.9 L490.3,236.2
		L496.0,235.1 L501.6,227.6 L507.3,223.2 L513.0,214.3 L518.6,204.9 L524.3,197.4 L530.0,190.2 L535.7,188.0
		L541.3,186.6 L547.0,183.4 L552.7,175.1 L558.3,171.9 L564.0,167.5 L569.7,155.0 L575.3,133.4 L581.0,120.5
		L586.7,114.0 L592.3,105.0 L598.0,98.6 L603.7,83.5 L609.3,81.7 L615.0,42.1  '/></g>
	</g>
<g fill="none" color="#FFFFFF" stroke="rgb(  0, 158, 115)" stroke-width="2.00" stroke-linecap="butt" stroke-linejoin="miter">
</g>
<g fill="none" color="black" stroke="currentColor" stroke-width="2.00" stroke-linecap="butt" stroke-linejoin="miter">
</g>
<g fill="none" color="black" stroke="black" stroke-width="1.00" stroke-linecap="butt" stroke-linejoin="miter">
</g>
<g fill="none" color="black" stroke="currentColor" stroke-width="1.00" stroke-linecap="butt" stroke-linejoin="miter">
	<path stroke='black'  d='M53.9,18.1 L53.9,446.0 L615.0,446.0 L615.0,18.1 L53.9,18.1 Z  '/></g>
<g fill="none" color="black" stroke="currentColor" stroke-width="1.00" stroke-linecap="butt" stroke-linejoin="miter">
</g>
</g>
</svg>
